X: 1
T: McDonagh's
M: 4/4
L: 1/8
R: reel
K: Dmaj
A|:defd A2 (3AAA|(3Bcd ef gfec|defd A2 (3ABc||1 dBAG FDDA:|2 dBAG FDDB||
|Adfd Adfd|Acec fcec|Adfd Adfd|faag fedB|
|Adfd Adfd|Acef gfec|defg a2 (3aaf|gfeg fddA|
